X: 7674
T: Coleman's Cross
R: jig
M: 6/8
K: Edorian
|:B2e efe|B2e efe|A2d ded|A2d ded|
B2e efe|B2e g2a|bag agf|1 g2e e2d:|2 g2e e2f||
|:gdB G3|FDF AGF|GBd g3|fdc def|
gdB G3|FDF AGF|GBd gag|1 f2d d2f:|2 f2d d2d||

